X:1
T:[ID 3-51]
T:[ID 3-51]
T:Bezeichnung standardisiert: Wachel; Wachel 31.
T:Urheber unbekannt Datum in der hier transkribierten schriftlichen Quelle: 1767
C:Urheber unbekannt
C:Datum in der hier transkribierten schriftlichen Quelle: 1767
%%score 1 2
L:1/8
M:3/4
K:D
V:1 treble nm="Primo"
V:2 treble nm="Secondo"
V:1
 d>d | dAFAde | fe d2 f>f | fedefg | ag f2 a>a | a2 bagf | g2 agfe | f2 gfed | e2 z2 f>f | %9
 f2 z2 f>f | f2 z2 f>f | f2 z2 :: e>e | e3 f g2 | g2 agfe | f2 fagf | e2 z2 a>a | a2 bagf | %18
 g2 agfe | fagfed | e2 z2 f>f | f2 z2 f>f | f2 z2 f>f | f2 z2 :| %24
V:2
 !fermata!z2 | z6 | z2 z2 d>d | dAFAde | fe d2 f>f | f2 gfed | e2 fedc | d2 edcB | A2 z2 d>d | %9
 dAFA d>d | dAFA d>d | d2 z2 :: c>c | c3 d e2 | e2 fedc | dcdfed | c2 z2 f>f | f2 gfed | e2 fedc | %19
 dfedcB | A2 z2 d>d | dAFA d>d | dAFA d>d | d2 z2 :| %24

